X: 086
T: the Fairies
B: 204 Favourite Country Dances
N: Published by Straight & Skillern, London ca.1775
F: http://imslp.org/wiki/204_Favourite_Country_Dances_(Various) p.43 #86
Z: 2014 John Chambers <jc:trillian.mit.edu>
M: C
L: 1/8
K: Bb
% - - - - - - - - - - - - - - - - - - - - - - - - -
|:\
bfdB ecAF | E>G Cc {B}A2GF |\
bfdB ecAF | BdFA B2B,2 :|\
|:\
fdc=B cded | ecBA BcdF |\
Gceg fABe | dcBA B2B,2 :|
% - - - - - - - - - - - - - - - - - - - - - - - - -
%%begintext align
%% The 1st & 2d Cu. foot it change sides,
%% the same back again, cross over 2 Cu.
%% lead up to the top & cast off, foot it
%% corners & turn, lead out sides & turn.
%%endtext

%%sep 1 1 500
%%sep 1 1 500
